swiss/communes/0058.svg

<?xml version="1.0" encoding="UTF-8" standalone="no"?>
<!-- Created with Inkscape (http://www.inkscape.org/) -->
<svg
   xmlns:svg="http://www.w3.org/2000/svg"
   xmlns="http://www.w3.org/2000/svg"
   version="1.0"
   width="193.38628"
   height="226.52193"
   id="svg2780">
  <defs
     id="defs2782" />
  <g
     transform="translate(-27.974369,-813.30596)"
     id="layer1">
    <path
       d="M 28.974369,814.30596 L 32.454115,960.50625 C 34.939642,1064.9351 214.39536,1064.9351 216.8809,960.50625 L 220.36064,814.30596 L 28.974369,814.30596 z"
       id="path3282"
       style="fill:#f0e539;fill-opacity:1;fill-rule:evenodd;stroke:#000000;stroke-width:2;stroke-linecap:butt;stroke-miterlimit:4;stroke-dashoffset:0;stroke-opacity:1" />
    <path
       d="M 48.305206,883.77947 C 41.036561,887.12723 33.202024,877.3165 41.897534,870.84026 C 36.249336,862.05579 46.88306,852.74281 54.234699,866.15888 C 57.670646,862.98833 61.021669,861.05619 65.508252,859.86835 C 62.318746,840.56072 54.74646,830.92893 47.664605,823.61591 C 61.084295,826.779 68.952038,838.86582 72.794908,848.21427 C 76.65605,857.60717 82.223674,863.09882 96.946113,855.80605 C 95.459626,844.05652 96.849878,826.58017 103.07422,822.04722 C 102.86245,829.41042 102.38811,832.69095 105.12631,847.51806 C 107.86048,862.3234 128.74841,861.7816 132.10815,849.87966 C 135.50048,837.86227 151.45889,827.24899 151.89188,819.67594 C 157.91617,829.26275 143.0301,840.91646 141.73228,851.47646 C 140.30132,863.11984 167.42578,859.03657 170.31312,853.65043 C 177.64337,839.97631 192.35687,839.76376 209.61037,822.04722 C 205.49092,843.99716 180.58343,849.22275 180.25106,859.5224 C 179.92272,869.69749 202.5632,870.46128 210.80516,884.94691 C 199.05991,877.82333 182.54192,878.78541 172.27756,868.01347 C 171.21778,866.90128 169.20822,866.09144 167.29281,867.00669 C 161.30107,869.86979 142.4276,869.52352 135.97965,864.27454 C 126.64021,871.00567 110.82881,868.88862 102.73636,864.33599 C 94.442886,869.46077 81.698341,869.55529 75.026114,866.29908 C 67.623908,869.41473 62.46912,872.53173 59.689397,874.68075 C 67.779271,889.55089 54.267653,890.46961 48.305206,883.77947 z"
       id="path2257"
       style="fill:#000000;fill-opacity:1;fill-rule:evenodd;stroke:none;stroke-width:1px;stroke-linecap:butt;stroke-linejoin:miter;stroke-opacity:1" />
    <path
       d="M 50.77387,946.73192 C 42.09456,949.72702 37.963018,939.91629 44.189865,934.67438 C 38.718,928.34644 49.175391,916.57693 55.821697,928.935 C 59.257644,925.76445 65.603329,923.30699 69.387581,921.41014 C 71.445165,920.37877 70.314281,917.01909 69.960815,915.45528 C 66.957639,902.16862 72.337812,895.84439 67.76658,877.22271 C 76.448189,880.63517 75.961057,904.99594 79.803927,914.34439 C 83.665069,923.73729 89.601967,922.68008 95.725834,921.93617 C 98.225226,921.63255 102.25845,920.79703 101.50719,916.08169 C 99.478812,903.35041 103.95788,880.99181 109.26727,877.12519 C 108.18269,884.61308 108.79591,906.03213 112.31685,915.3724 C 115.92382,924.94091 130.88331,922.87541 134.89922,912.13564 C 140.63305,896.80156 158.31815,889.92548 156.50678,878.86121 C 165.89761,893.41211 147.01566,903.42029 145.0826,915.48691 C 144.17306,921.16447 143.80027,921.10062 152.98559,923.01302 C 162.26666,924.94536 169.36937,920.93285 171.47441,917.60924 C 182.60248,900.03928 199.37842,897.5842 211.02103,890.466 C 211.51497,898.32638 182.23093,911.86165 182.02325,923.28348 C 181.8133,934.82995 211.76859,939.41273 211.28251,952.40212 C 205.5222,944.28105 184.68816,945.49617 174.79786,932.97862 C 173.84545,931.77321 172.20588,930.63089 170.29047,931.54614 C 164.29873,934.40924 141.22351,934.13601 134.77556,928.88703 C 125.81018,934.24661 113.13885,932.7316 106.79201,929.05177 C 98.498548,934.17655 86.712753,936.32272 79.133423,930.68359 C 77.720239,929.63216 75.275858,930.48563 73.594917,931.13933 C 68.044472,933.29784 63.586303,936.33639 61.452728,937.98587 C 70.866142,949.85834 55.501985,953.0694 50.77387,946.73192 z"
       id="use2392"
       style="fill:#000000;fill-opacity:1;fill-rule:evenodd;stroke:none;stroke-width:1px;stroke-linecap:butt;stroke-linejoin:miter;stroke-opacity:1" />
    <path
       d="M 69.749709,1009.4317 C 63.636288,1014.3669 54.837331,1005.3829 62.001678,999.21258 C 52.111226,990.46903 70.866142,978.94541 72.342767,993.34875 C 75.17369,990.32793 77.75831,988.98579 81.454866,987.85406 C 74.837026,976.93957 77.324409,952.90589 70.367396,946.06297 C 82.546236,948.70259 85.701396,969.69266 88.194027,978.25188 C 91.235152,988.69452 107.61472,991.09396 107.03453,983.18021 C 105.65706,964.39196 110.09899,950.38182 115.2273,946.06297 C 113.68128,954.20057 114.13301,964.28293 116.38905,978.40971 C 118.64177,992.51573 136.6906,990.14484 139.14875,980.30709 C 143.27848,963.77951 160.67423,955.89673 160.0335,946.06297 C 167.24133,955.07228 149.76475,970.43733 149.1942,981.49604 C 148.62579,992.63744 165.93415,989.15653 169.03934,984.42875 C 181.93659,964.79213 194.88189,964.839 201.41687,954.56764 C 202.13745,966.75277 183.56595,975.63354 179.05484,986.49305 C 174.4996,997.45881 192.30156,994.34688 193.23196,1007.899 C 186.42526,1000.9595 184.08974,1006.2997 171.8922,997.40801 C 170.78268,996.5992 168.83433,995.66496 167.25619,996.53698 C 162.31952,999.26488 147.66201,999.28761 142.34945,994.28661 C 134.65456,1000.6998 120.11759,1000.2698 113.36194,995.05042 C 106.70516,1000.5503 95.360724,999.55996 90.905151,997.22812 C 87.065091,995.2184 81.419548,998.7153 79.129297,1000.7628 C 89.328655,1009.6331 75.036309,1016.9291 69.749709,1009.4317 z"
       id="use2394"
       style="fill:#000000;fill-opacity:1;fill-rule:evenodd;stroke:none;stroke-width:1px;stroke-linecap:butt;stroke-linejoin:miter;stroke-opacity:1" />
  </g>
</svg>

<svg xmlns="http://www.w3.org/2000/svg" version="1.0" width="193.386" height="226.522"><path d="m28.974 814.306 3.48 146.2c2.486 104.43 181.941 104.43 184.427 0l3.48-146.2H28.974z" style="fill:#f0e539;fill-opacity:1;fill-rule:evenodd;stroke:#000;stroke-width:2;stroke-linecap:butt;stroke-miterlimit:4;stroke-dashoffset:0;stroke-opacity:1" transform="translate(-27.974 -813.306)"/><path d="M48.305 883.78c-7.268 3.347-15.103-6.463-6.407-12.94-5.649-8.784 4.985-18.097 12.337-4.681 3.436-3.17 6.787-5.103 11.273-6.29-3.19-19.308-10.762-28.94-17.843-36.253 13.42 3.163 21.287 15.25 25.13 24.598 3.861 9.393 9.429 14.885 24.151 7.592-1.486-11.75-.096-29.226 6.128-33.759-.212 7.363-.686 10.644 2.052 25.471 2.734 14.805 23.622 14.264 26.982 2.362 3.392-12.018 19.35-22.631 19.784-30.204 6.024 9.587-8.862 21.24-10.16 31.8-1.43 11.644 25.694 7.56 28.581 2.174 7.33-13.674 22.044-13.886 39.297-31.603-4.12 21.95-29.027 27.176-29.359 37.475-.328 10.175 22.312 10.94 30.554 25.425-11.745-7.124-28.263-6.162-38.527-16.934-1.06-1.112-3.07-1.922-4.985-1.006-5.992 2.863-24.865 2.517-31.313-2.732-9.34 6.73-25.151 4.614-33.244.061-8.293 5.125-21.038 5.22-27.71 1.963-7.402 3.116-12.557 6.233-15.337 8.382 8.09 14.87-5.421 15.789-11.384 9.098z" style="fill:#000;fill-opacity:1;fill-rule:evenodd;stroke:none;stroke-width:1px;stroke-linecap:butt;stroke-linejoin:miter;stroke-opacity:1" transform="translate(-27.974 -813.306)"/><path d="M50.774 946.732c-8.68 2.995-12.811-6.816-6.584-12.058-5.472-6.328 4.985-18.097 11.632-5.739 3.436-3.17 9.781-5.628 13.566-7.525 2.057-1.031.926-4.39.573-5.955-3.003-13.286 2.377-19.61-2.194-38.232 8.681 3.412 8.194 27.773 12.037 37.121 3.861 9.393 9.798 8.336 15.922 7.592 2.5-.303 6.532-1.139 5.781-5.854-2.028-12.732 2.45-35.09 7.76-38.957-1.084 7.488-.471 28.907 3.05 38.247 3.607 9.569 18.566 7.503 22.582-3.236 5.734-15.334 23.42-22.21 21.608-33.275 9.39 14.551-9.491 24.56-11.424 36.626-.91 5.677-1.283 5.614 7.903 7.526 9.28 1.932 16.383-2.08 18.488-5.404 11.128-17.57 27.904-20.025 39.547-27.143.494 7.86-28.79 21.396-28.998 32.817-.21 11.547 29.746 16.13 29.26 29.12-5.76-8.122-26.595-6.907-36.485-19.424-.953-1.206-2.592-2.348-4.508-1.433-5.991 2.863-29.066 2.59-35.514-2.659-8.966 5.36-21.637 3.845-27.984.165-8.293 5.125-20.08 7.27-27.659 1.632-1.413-1.052-3.857-.198-5.538.455-5.55 2.159-10.009 5.197-12.142 6.847 9.413 11.872-5.951 15.083-10.68 8.746z" style="fill:#000;fill-opacity:1;fill-rule:evenodd;stroke:none;stroke-width:1px;stroke-linecap:butt;stroke-linejoin:miter;stroke-opacity:1" transform="translate(-27.974 -813.306)"/><path d="M69.75 1009.432c-6.114 4.935-14.913-4.05-7.748-10.22-9.89-8.743 8.864-20.267 10.34-5.863 2.832-3.021 5.416-4.363 9.113-5.495-6.618-10.914-4.13-34.948-11.088-41.791 12.18 2.64 15.334 23.63 17.827 32.189 3.041 10.443 19.42 12.842 18.84 4.928-1.377-18.788 3.065-32.798 8.193-37.117-1.546 8.138-1.094 18.22 1.162 32.347 2.253 14.106 20.302 11.735 22.76 1.897 4.13-16.527 21.525-24.41 20.885-34.244 7.207 9.01-10.27 24.374-10.84 35.433-.568 11.141 16.74 7.66 19.845 2.933 12.898-19.637 25.843-19.59 32.378-29.861.72 12.185-17.851 21.066-22.362 31.925-4.555 10.966 13.247 7.854 14.177 21.406-6.807-6.94-9.142-1.6-21.34-10.491-1.11-.809-3.058-1.743-4.636-.871-4.936 2.728-19.594 2.75-24.907-2.25-7.694 6.413-22.231 5.983-28.987.763-6.657 5.5-18.001 4.51-22.457 2.178-3.84-2.01-9.485 1.487-11.776 3.535 10.2 8.87-4.093 16.166-9.38 8.669z" style="fill:#000;fill-opacity:1;fill-rule:evenodd;stroke:none;stroke-width:1px;stroke-linecap:butt;stroke-linejoin:miter;stroke-opacity:1" transform="translate(-27.974 -813.306)"/></svg>
